X:1
T:Tapion's Theme
T:Adaptacion Antony More
T:EscueladeMusicaMas 
T:Colombia
T:Tapion's Theme
T:Dragon Ball Z: El Ataque del Dragón
T:Compositor: Nathan jonhson
T:©
T:©
T:©
T:©
T:©
C:Corporacion Batuta Risaralda
Z:©
%%score [ 1 2 3 4 ]
L:1/8
Q:1/4=70
M:4/4
K:C
V:1 treble nm="Flute 1" snm="Fl. 1"
V:2 treble nm="Flute 2" snm="Fl. 2"
V:3 treble nm="Flute 3" snm="Fl. 3"
V:4 treble nm="Flute 4" snm="Fl. 4"
V:1
 EE | A4- Aedc | d6 AB | c4 c2 dc | B6 EE | A4- Aedc | d6 AB | c3 c BBAG | A6 EE | A4- Aedc | %10
 d6 AB | c4 c2 dc | B6 EE | A4- Aedc | d6 AB | c3 c BBAG | %16
!>(! A4"^Flauta 1, CAMBIO\n FLAUTA DULCE!" z4!>)! |!<(! z6 EE!<)! | AECE Aedc | dABc d2 AB | %20
 cAEA ccdc | B^GEG B2 EE | AECE Aedc | dABc d2 AB | cAEc BBAG | A6 EE |: AECE Aedc | dABc d2 AB | %28
 cAEA ccdc | B^GEG B2 EE | AECE Aedc | dABc d2 AB | cAEc BBAG | A6 EE :| A4- Aedc | d6 AB | %36
 c4 c2 dc | B6 EE | A4- Aedc | d6 AB | c3 c BBAG | A8 |] %42
V:2
 z2 | z2 ee A4- | Aedc d4 | z2 ee A4- | ^GEGB G4 | z2 ee A4- | Aedc d4 | z2 ee BBAG | c2 EE z4 | %9
 z2 ee A4- | Aedc d4 | z2 ee A4- | ^GEGB G4 | z2 ee A4- | Aedc d4 | z2 ee BBAG |!>(! c4 B4!>)! | %17
!<(! z4 BB B2!<)! | c8 | F8 | c8 | B8 | c8 | F8 | c4 B2 BB | E4 EEEE |: z2 ee A4- | Aedc d4 | %28
 z2 ee A4- | ^GEGB G4 | z2 ee A4- | Aedc d4 | z2 ee ddcB | E4 EE z2 :| z2 ee A4- | Aedc d4 | %36
 z2 ee A4- | ^GEGB G4 | z2 ee A4- | Aedc d4 | z2 ee ddcB | c8 |] %42
V:3
 z2 | A8 | A8 | A8 | ^G8 | A8 | A8 | A4 ^G2 E2 | E4 EE z2 | A8 | A8 | A8 | ^G8 | A8 | A8 | %15
 A4 ^G2 E2 |!>(! A4 G4!>)! |!<(! z2 GG G4!<)! | A8 | A8 | A8 | ^G8 | A8 | A8 | A4 ^G2 EE | A6 EE |: %26
 A4- Aedc | d6 AB | c4 c2 dc | B6 EE | A4- Aedc | d6 AB | c3 c BBAG | c2 EE z4 :| A4- Aedc | %35
 d6 AB | c4 c2 dc | B6 EE | A4- Aedc | d6 AB | c3 c BBAG | A8 |] %42
V:4
 z2 | z8 | z8 | z8 | z8 | z8 | z8 | z8 | z6 EE | E8 | D8 | ^E8 | E8 | E8 | D8 | E4 E2 E2 | %16
!>(! E2 EE E2 EE!>)! |!<(! EE E6!<)! | E8 | D8 | ^E8 | E8 | E8 | D8 | E4 E2 EE | E2 EE EEEE |: %26
 [EA]8 | [DA]8 | [^EA]8 | [E^G]8 | [EA]8 | [DA]8 | [EA]4 [E^G]2 E2 | E2 EE EEEE :| z2 ee A4- | %35
 Aedc d4 | z2 ee A4- | ^GEGB G4 | z2 ee A4- | Aedc d4 | z2 ee ddcB | E8 |] %42

